**kern	**silbe	**harmony	**phrase	**leadinstrument	**rhyme	**timestamp	**harte
*ICvox	*	*M4/4	*	*	*	*	*M4/4
*VRlead	*	*	*	*	*	*	*
*Hstimme	*	*	*	*	*	*	*
*E:	*	*E:	*	*	*	*	*E:
*M4/4	*	*	*	*	*	*	*
*clefG2	*	*	*	*	*	*	*
r;	.	1r;	.	r	.	0	N.C.
=1	=1	=1	=1	=1	=1	=1	=1
*>Letter>A	*>Letter>A	*>Letter>A	*>Letter>A	*>Letter>A	*>Letter>A	*>Letter>A	*>Letter>A
*>Label>Intro	*>Label>Intro	*>Label>Intro	*>Label>Intro	*>Label>Intro	*>Label>Intro	*>Label>Intro	*>Label>Intro
1r	.	1EM	newline	guitar	.	0.395	E:maj
=2	=2	=2	=2	=2	=2	=2	=2
1r	.	1EM	.	guitar	.	2.166	E:maj
=3	=3	=3	=3	=3	=3	=3	=3
1r	.	1EM	.	guitar	.	3.937	E:maj
=4	=4	=4	=4	=4	=4	=4	=4
1r	.	1EM	.	guitar	.	5.708	E:maj
=5	=5	=5	=5	=5	=5	=5	=5
*>Letter>B	*>Letter>B	*>Letter>B	*>Letter>B	*>Letter>B	*>Letter>B	*>Letter>B	*>Letter>B
*>Label>Chorus	*>Label>Chorus	*>Label>Chorus	*>Label>Chorus	*>Label>Chorus	*>Label>Chorus	*>Label>Chorus	*>Label>Chorus
4r	.	1EM	newline	voice	.	7.479	E:maj
16B	Lit-	.	.	.	.	.	.
16B	-tle	.	.	.	.	.	.
[8c#	sis-	.	.	.	.	.	.
8c#]	_	.	.	.	.	.	.
8B	-ter	.	.	.	.	.	.
8G	don't	.	.	.	.	.	.
8E	you	.	.	.	.	.	.
=6	=6	=6	=6	=6	=6	=6	=6
1r	.	1EM	.	voice	.	9.222	E:maj
=7	=7	=7	=7	=7	=7	=7	=7
4r	.	1EM	.	voice	.	10.965	E:maj
16B	Lit-	.	.	.	.	.	.
16B	-tle	.	.	.	.	.	.
[8c#	sis-	.	.	.	.	.	.
8c#]	_	.	.	.	.	.	.
8B	-ter	.	.	.	.	.	.
8G	don't	.	.	.	.	.	.
8E	you	.	.	.	.	.	.
=8	=8	=8	=8	=8	=8	=8	=8
1r	.	1EM	.	voice	.	12.708	E:maj
=9	=9	=9	=9	=9	=9	=9	=9
4r	.	1EM	newline	voice	.	14.45	E:maj
16B	Lit-	.	.	.	.	.	.
16B	-tle	.	.	.	.	.	.
[8c#	sis-	.	.	.	.	.	.
8c#]	_	.	.	.	.	.	.
8B	-ter	.	.	.	.	.	.
8.G	don't	.	.	.	.	.	.
16E	you	.	.	.	.	.	.
=10	=10	=10	=10	=10	=10	=10	=10
8G	kiss	1AM	.	voice	.	16.184	A:maj
8E	me	.	.	.	.	.	.
8E	once	.	.	.	.	.	.
8C#	or	.	.	.	.	.	.
4E	twice	.	.	.	A	.	.
8r	.	.	.	.	.	.	.
8E	Then	.	.	.	.	.	.
=11	=11	=11	=11	=11	=11	=11	=11
8G	say	1AM	.	voice	.	17.919	A:maj
8E	it's	.	.	.	.	.	.
8E	ve-	.	.	.	.	.	.
8C#	-ry	.	.	.	.	.	.
8E	nice	.	.	.	A	.	.
8E	and	.	.	.	.	.	.
8F#	then	.	.	.	.	.	.
8E	you	.	.	.	.	.	.
=12	=12	=12	=12	=12	=12	=12	=12
8B	run	1EM	.	voice	B	19.653	E:maj
[8G#	_	.	.	.	.	.	.
4G#]	_	.	.	.	.	.	.
2r	.	.	.	.	.	.	.
=13	=13	=13	=13	=13	=13	=13	=13
1r	.	1EM	.	voice	.	21.387	E:maj
=14	=14	=14	=14	=14	=14	=14	=14
4r	.	1BM	newline	voice	.	23.121	B:maj
16F#	Lit-	.	.	.	.	.	.
16F#	-tle	.	.	.	.	.	.
[8F#	sis-	.	.	.	.	.	.
8F#]	_	.	.	.	.	.	.
8F#	-ter	.	.	.	.	.	.
8F#	don't	.	.	.	.	.	.
8F#	you	.	.	.	.	.	.
=15	=15	=15	=15	=15	=15	=15	=15
4G	do	2CM	.	voice	.	24.854	C:maj
8G	what	.	.	.	.	.	.
8G	your	.	.	.	.	.	.
4F#	big	2BM	.	voice	.	25.72	B:maj
8F#	sis-	.	.	.	.	.	.
8E	-ter	.	.	.	.	.	.
=16	=16	=16	=16	=16	=16	=16	=16
4E	done-	1EM	.	voice	B	26.586	E:maj
4r	.	.	.	.	.	.	.
2r	.	.	.	.	.	.	.
=17	=17	=17	=17	=17	=17	=17	=17
2r	.	1EM	.	voice	.	28.319	E:maj
8r	.	.	.	.	.	.	.
[8d	-Well,	.	.	.	.	.	.
8d]	_	.	.	.	.	.	.
8d	I	.	.	.	.	.	.
=18	=18	=18	=18	=18	=18	=18	=18
*>Letter>C	*>Letter>C	*>Letter>C	*>Letter>C	*>Letter>C	*>Letter>C	*>Letter>C	*>Letter>C
*>Label>Verse	*>Label>Verse	*>Label>Verse	*>Label>Verse	*>Label>Verse	*>Label>Verse	*>Label>Verse	*>Label>Verse
4d	da-	1EM	newline	voice	.	30.052	E:maj
4c#	-ted	.	.	.	.	.	.
4B	your	.	.	.	.	.	.
8A	big	.	.	.	.	.	.
[8B	sis-	.	.	.	.	.	.
=19	=19	=19	=19	=19	=19	=19	=19
8B]	_	1EM	.	voice	.	31.77	E:maj
8G	-ter	.	.	.	.	.	.
4r	.	.	.	.	.	.	.
8r	.	.	.	.	.	.	.
[8d	And	.	.	.	.	.	.
8d]	_	.	.	.	.	.	.
8d	I	.	.	.	.	.	.
=20	=20	=20	=20	=20	=20	=20	=20
4d	took	1EM	.	voice	.	33.488	E:maj
4c#	her	.	.	.	.	.	.
4B	to	.	.	.	.	.	.
8A	a	.	.	.	.	.	.
[8G	show	.	.	.	C	.	.
=21	=21	=21	=21	=21	=21	=21	=21
4G]	_	1EM	.	voice	.	35.206	E:maj
4r	.	.	.	.	.	.	.
4r	.	.	.	.	.	.	.
8r	.	.	.	.	.	.	.
8B	I	.	.	.	.	.	.
=22	=22	=22	=22	=22	=22	=22	=22
4d	went	1EM	newline	voice	.	36.923	E:maj
8c#	for	.	.	.	.	.	.
8B	some	.	.	.	.	.	.
8d	can-	.	.	.	(D	.	.
8d	-dy	.	.	.	d)	.	.
8r	.	.	.	.	.	.	.
8B	A-	.	.	.	.	.	.
=23	=23	=23	=23	=23	=23	=23	=23
8d	-long	1EM	.	voice	.	38.687	E:maj
4d	came	.	.	.	.	.	.
8B	Jim	.	.	.	.	.	.
8d	Dan-	.	.	.	(D	.	.
8d	-dy	.	.	.	d)	.	.
8c#	And	.	.	.	(D	.	.
8B	they	.	.	.	d)	.	.
=24	=24	=24	=24	=24	=24	=24	=24
4e	snuck	1N	.	voice	.	40.452	N.C.
4B	right	.	.	.	.	.	.
4A	out	.	.	.	.	.	.
8G	the	.	.	.	.	.	.
[8E	door	.	.	.	C	.	.
=25	=25	=25	=25	=25	=25	=25	=25
2E]	_	1EM	.	voice	.	42.216	E:maj
2r	.	.	.	.	.	.	.
=26	=26	=26	=26	=26	=26	=26	=26
4r	.	1N	.	voice	.	43.98	N.C.
16B	Lit-	.	.	.	.	.	.
16B	-tle	.	.	.	.	.	.
[8c#	sis-	.	.	.	.	.	.
8c#]	_	.	.	.	.	.	.
8B	-ter	.	.	.	.	.	.
8G	don't	.	.	.	.	.	.
8E	you	.	.	.	.	.	.
=27	=27	=27	=27	=27	=27	=27	=27
*>Letter>B2	*>Letter>B2	*>Letter>B2	*>Letter>B2	*>Letter>B2	*>Letter>B2	*>Letter>B2	*>Letter>B2
*>Label>Chorus	*>Label>Chorus	*>Label>Chorus	*>Label>Chorus	*>Label>Chorus	*>Label>Chorus	*>Label>Chorus	*>Label>Chorus
1r	.	1EM	->newline	voice	.	45.744	E:maj
=28	=28	=28	=28	=28	=28	=28	=28
4r	.	1EM	.	voice	.	47.467	E:maj
16B	Lit-	.	.	.	.	.	.
16B	-tle	.	.	.	.	.	.
[8c#	sis-	.	.	.	.	.	.
8c#]	_	.	.	.	.	.	.
8B	-ter	.	.	.	.	.	.
8G	don't	.	.	.	.	.	.
8E	you	.	.	.	.	.	.
=29	=29	=29	=29	=29	=29	=29	=29
1r	.	1EM	.	voice	.	49.19	E:maj
=30	=30	=30	=30	=30	=30	=30	=30
4r	.	1EM	.	voice	.	50.913	E:maj
16B	Lit-	.	.	.	.	.	.
16B	-tle	.	.	.	.	.	.
[8c#	sis-	.	.	.	.	.	.
8c#]	_	.	.	.	.	.	.
8B	-ter	.	.	.	.	.	.
8.G	don't	.	.	.	.	.	.
16E	you	.	.	.	.	.	.
=31	=31	=31	=31	=31	=31	=31	=31
8G	kiss	1AM	newline	voice	.	52.636	A:maj
8E	me	.	.	.	.	.	.
8E	once	.	.	.	.	.	.
8C#	or	.	.	.	.	.	.
4E	twice	.	.	.	A	.	.
8r	.	.	.	.	.	.	.
8E	Then	.	.	.	.	.	.
=32	=32	=32	=32	=32	=32	=32	=32
8G	say	1AM	.	voice	.	54.359	A:maj
8E	it's	.	.	.	.	.	.
8E	ve-	.	.	.	.	.	.
8C#	-ry	.	.	.	.	.	.
8E	nice	.	.	.	A	.	.
8E	and	.	.	.	.	.	.
8F#	then	.	.	.	.	.	.
8E	you	.	.	.	.	.	.
=33	=33	=33	=33	=33	=33	=33	=33
8B	run	1EM	.	voice	B	56.082	E:maj
[8G#	_	.	.	.	.	.	.
4G#]	_	.	.	.	.	.	.
2r	.	.	.	.	.	.	.
=34	=34	=34	=34	=34	=34	=34	=34
1r	.	1EM	.	voice	.	57.804	E:maj
=35	=35	=35	=35	=35	=35	=35	=35
4r	.	1BM	newline	voice	.	59.527	B:maj
16F#	Lit-	.	.	.	.	.	.
16F#	-tle	.	.	.	.	.	.
[8F#	sis-	.	.	.	.	.	.
8F#]	_	.	.	.	.	.	.
8F#	-ter	.	.	.	.	.	.
8F#	don't	.	.	.	.	.	.
8F#	you	.	.	.	.	.	.
=36	=36	=36	=36	=36	=36	=36	=36
4G	do	2CM	.	voice	.	61.242	C:maj
8G	what	.	.	.	.	.	.
8G	your	.	.	.	.	.	.
4F#	big	2BM	.	voice	.	62.099	B:maj
8F#	sis-	.	.	.	.	.	.
8E	-ter	.	.	.	.	.	.
=37	=37	=37	=37	=37	=37	=37	=37
4E	done-	1EM	.	voice	B	62.957	E:maj
4r	.	.	.	.	.	.	.
2r	.	.	.	.	.	.	.
=38	=38	=38	=38	=38	=38	=38	=38
2r	.	1EM	.	voice	.	64.671	E:maj
8r	.	.	.	.	.	.	.
[8d	-Ev'-	.	.	.	.	.	.
8d]	_	.	.	.	.	.	.
8d	-ry	.	.	.	.	.	.
=39	=39	=39	=39	=39	=39	=39	=39
*>Letter>C	*>Letter>C	*>Letter>C	*>Letter>C	*>Letter>C	*>Letter>C	*>Letter>C	*>Letter>C
*>Label>Verse	*>Label>Verse	*>Label>Verse	*>Label>Verse	*>Label>Verse	*>Label>Verse	*>Label>Verse	*>Label>Verse
4d	time	1EM	newline	voice	.	66.386	E:maj
4c#	I	.	.	.	.	.	.
4B	see	.	.	.	.	.	.
8A	your	.	.	.	.	.	.
[8B	sis-	.	.	.	.	.	.
=40	=40	=40	=40	=40	=40	=40	=40
8B]	_	1EM	.	voice	.	68.086	E:maj
8G	-ter	.	.	.	.	.	.
4r	.	.	.	.	.	.	.
8r	.	.	.	.	.	.	.
[8d	Well	.	.	.	.	.	.
8d]	_	.	.	.	.	.	.
8d	she's	.	.	.	.	.	.
=41	=41	=41	=41	=41	=41	=41	=41
4d	got	1EM	.	voice	.	69.787	E:maj
4c#	some-	.	.	.	.	.	.
4B	-bo-	.	.	.	.	.	.
8A	-dy	.	.	.	.	.	.
[8G	new	.	.	.	E	.	.
=42	=42	=42	=42	=42	=42	=42	=42
4G]	_	1EM	.	voice	.	71.487	E:maj
4r	.	.	.	.	.	.	.
4r	.	.	.	.	.	.	.
8r	.	.	.	.	.	.	.
8B	She's	.	.	.	.	.	.
=43	=43	=43	=43	=43	=43	=43	=43
8d	mean	1EM	newline	voice	.	73.187	E:maj
4d	and	.	.	.	.	.	.
8B	she's	.	.	.	.	.	.
8d	e-	.	.	.	(F	.	.
8d	-vil	.	.	.	f)	.	.
8c#	like	.	.	.	.	.	.
8B	that	.	.	.	.	.	.
=44	=44	=44	=44	=44	=44	=44	=44
16d	lit-	1EM	.	voice	.	74.944	E:maj
16d	-tle	.	.	.	.	.	.
[8c#	old	.	.	.	G	.	.
8c#]	_	.	.	.	.	.	.
8B	Boll	.	.	.	G	.	.
8d	Wee-	.	.	.	(F	.	.
8d	-vil	.	.	.	f)	.	.
8c#	guess	.	.	.	.	.	.
8B	I'll	.	.	.	.	.	.
=45	=45	=45	=45	=45	=45	=45	=45
4e	try	1N	.	voice	.	76.701	N.C.
4B	my	.	.	.	.	.	.
4A	luck	.	.	.	.	.	.
8G	with	.	.	.	.	.	.
[8E	you	.	.	.	E	.	.
=46	=46	=46	=46	=46	=46	=46	=46
2.E]	_	1EM	.	voice	.	78.458	E:maj
4r	.	.	.	.	.	.	.
=47	=47	=47	=47	=47	=47	=47	=47
4r	.	1N	.	voice	.	80.215	N.C.
16B	Lit-	.	.	.	.	.	.
16B	-tle	.	.	.	.	.	.
[8c#	sis-	.	.	.	.	.	.
8c#]	_	.	.	.	.	.	.
8B	-ter	.	.	.	.	.	.
8G	don't	.	.	.	.	.	.
8E	you	.	.	.	.	.	.
=48	=48	=48	=48	=48	=48	=48	=48
*>Letter>B2	*>Letter>B2	*>Letter>B2	*>Letter>B2	*>Letter>B2	*>Letter>B2	*>Letter>B2	*>Letter>B2
*>Label>Chorus	*>Label>Chorus	*>Label>Chorus	*>Label>Chorus	*>Label>Chorus	*>Label>Chorus	*>Label>Chorus	*>Label>Chorus
1r	.	1EM	->newline	voice	.	81.972	E:maj
=49	=49	=49	=49	=49	=49	=49	=49
4r	.	1EM	.	voice	.	83.701	E:maj
16B	Lit-	.	.	.	.	.	.
16B	-tle	.	.	.	.	.	.
[8c#	sis-	.	.	.	.	.	.
8c#]	_	.	.	.	.	.	.
8B	-ter	.	.	.	.	.	.
8G	don't	.	.	.	.	.	.
8E	you	.	.	.	.	.	.
=50	=50	=50	=50	=50	=50	=50	=50
1r	.	1EM	.	voice	.	85.43	E:maj
=51	=51	=51	=51	=51	=51	=51	=51
4r	.	1EM	.	voice	.	87.159	E:maj
16B	Lit-	.	.	.	.	.	.
16B	-tle	.	.	.	.	.	.
[8c#	sis-	.	.	.	.	.	.
8c#]	_	.	.	.	.	.	.
8B	-ter	.	.	.	.	.	.
8.G	don't	.	.	.	.	.	.
16E	you	.	.	.	.	.	.
=52	=52	=52	=52	=52	=52	=52	=52
8G	kiss	1AM	newline	voice	.	88.888	A:maj
8E	me	.	.	.	.	.	.
8E	once	.	.	.	.	.	.
8C#	or	.	.	.	.	.	.
4E	twice	.	.	.	A	.	.
8r	.	.	.	.	.	.	.
8E	Then	.	.	.	.	.	.
=53	=53	=53	=53	=53	=53	=53	=53
8G	say	1AM	.	voice	.	90.607	A:maj
8E	it's	.	.	.	.	.	.
8E	ve-	.	.	.	.	.	.
8C#	-ry	.	.	.	.	.	.
8E	nice	.	.	.	A	.	.
8E	and	.	.	.	.	.	.
8F#	then	.	.	.	.	.	.
8E	you	.	.	.	.	.	.
=54	=54	=54	=54	=54	=54	=54	=54
8B	run	1EM	.	voice	B	92.325	E:maj
[8G#	_	.	.	.	.	.	.
4G#]	_	.	.	.	.	.	.
2r	.	.	.	.	.	.	.
=55	=55	=55	=55	=55	=55	=55	=55
1r	.	1EM	.	voice	.	94.044	E:maj
=56	=56	=56	=56	=56	=56	=56	=56
4r	.	1BM	newline	voice	.	95.762	B:maj
16F#	Lit-	.	.	.	.	.	.
16F#	-tle	.	.	.	.	.	.
[8F#	sis-	.	.	.	.	.	.
8F#]	_	.	.	.	.	.	.
8F#	-ter	.	.	.	.	.	.
8F#	don't	.	.	.	.	.	.
8F#	you	.	.	.	.	.	.
=57	=57	=57	=57	=57	=57	=57	=57
4G	do	2CM	.	voice	.	97.473	C:maj
8G	what	.	.	.	.	.	.
8G	your	.	.	.	.	.	.
4F#	big	2BM	.	voice	.	98.329	B:maj
8F#	sis-	.	.	.	.	.	.
8E	-ter	.	.	.	.	.	.
=58	=58	=58	=58	=58	=58	=58	=58
4E	done-	1EM	.	voice	B	99.184	E:maj
4r	.	.	.	.	.	.	.
2r	.	.	.	.	.	.	.
=59	=59	=59	=59	=59	=59	=59	=59
2r	.	1EM	.	voice	.	100.895	E:maj
8r	.	.	.	.	.	.	.
[8d	-Well,	.	.	.	.	.	.
8d]	_	.	.	.	.	.	.
8d	I	.	.	.	.	.	.
=60	=60	=60	=60	=60	=60	=60	=60
*>Letter>C	*>Letter>C	*>Letter>C	*>Letter>C	*>Letter>C	*>Letter>C	*>Letter>C	*>Letter>C
*>Label>Verse	*>Label>Verse	*>Label>Verse	*>Label>Verse	*>Label>Verse	*>Label>Verse	*>Label>Verse	*>Label>Verse
4d	used	1EM	newline	voice	.	102.605	E:maj
4c#	to	.	.	.	.	.	.
4B	pull	.	.	.	.	.	.
8A	your	.	.	.	.	.	.
[8B	pig-	.	.	.	.	.	.
=61	=61	=61	=61	=61	=61	=61	=61
8B]	_	1EM	.	voice	.	104.311	E:maj
8G	-tails	.	.	.	.	.	.
4r	.	.	.	.	.	.	.
4r	.	.	.	.	.	.	.
8r	.	.	.	.	.	.	.
8B	And	.	.	.	.	.	.
=62	=62	=62	=62	=62	=62	=62	=62
4d	pinch	1EM	.	voice	.	106.016	E:maj
4c#	your	.	.	.	.	.	.
4B	turned-	.	.	.	.	.	.
8A	-up	.	.	.	.	.	.
[8G	nose	.	.	.	H	.	.
=63	=63	=63	=63	=63	=63	=63	=63
2G]	_	1EM	.	voice	.	107.721	E:maj
4r	.	.	.	.	.	.	.
8r	.	.	.	.	.	.	.
8B	But	.	.	.	.	.	.
=64	=64	=64	=64	=64	=64	=64	=64
4d	you	1EM	newline	voice	.	109.426	E:maj
8c#	been	.	.	.	.	.	.
8B	a	.	.	.	.	.	.
8d	gro-	.	.	.	(I	.	.
8d	-win'	.	.	.	i)	.	.
8r	.	.	.	.	.	.	.
8B	And	.	.	.	.	.	.
=65	=65	=65	=65	=65	=65	=65	=65
16d	ba-	1EM	.	voice	.	111.193	E:maj
16d	-by,	.	.	.	.	.	.
8c#	it's	.	.	.	.	.	.
8r	.	.	.	.	.	.	.
8B	been	.	.	.	.	.	.
8d	sho-	.	.	.	(I	.	.
8d	-win'	.	.	.	i)	.	.
8c#	From	.	.	.	.	.	.
8B	your	.	.	.	.	.	.
=66	=66	=66	=66	=66	=66	=66	=66
4e	head	1N	.	voice	.	112.96	N.C.
4B	down	.	.	.	.	.	.
4A	to	.	.	.	.	.	.
8G	your	.	.	.	.	.	.
[8E	toes	.	.	.	H	.	.
=67	=67	=67	=67	=67	=67	=67	=67
2.E]	_	1EM	.	voice	.	114.726	E:maj
4r	.	.	.	.	.	.	.
=68	=68	=68	=68	=68	=68	=68	=68
4r	.	1N	.	voice	.	116.493	N.C.
16B	Lit-	.	.	.	.	.	.
16B	-tle	.	.	.	.	.	.
[8c#	sis-	.	.	.	.	.	.
8c#]	_	.	.	.	.	.	.
8B	-ter	.	.	.	.	.	.
8G	don't	.	.	.	.	.	.
8E	you	.	.	.	.	.	.
=69	=69	=69	=69	=69	=69	=69	=69
1r	.	1EM	->newline	voice	.	118.26	E:maj
=70	=70	=70	=70	=70	=70	=70	=70
4r	.	1EM	.	voice	.	119.984	E:maj
16B	Lit-	.	.	.	.	.	.
16B	-tle	.	.	.	.	.	.
[8c#	sis-	.	.	.	.	.	.
8c#]	_	.	.	.	.	.	.
8B	-ter	.	.	.	.	.	.
8G	don't	.	.	.	.	.	.
8E	you	.	.	.	.	.	.
=71	=71	=71	=71	=71	=71	=71	=71
1r	.	1EM	.	voice	.	121.708	E:maj
=72	=72	=72	=72	=72	=72	=72	=72
4r	.	1EM	.	voice	.	123.433	E:maj
16B	Lit-	.	.	.	.	.	.
16B	-tle	.	.	.	.	.	.
[8c#	sis-	.	.	.	.	.	.
8c#]	_	.	.	.	.	.	.
8B	-ter	.	.	.	.	.	.
8.G	don't	.	.	.	.	.	.
16E	you	.	.	.	.	.	.
=73	=73	=73	=73	=73	=73	=73	=73
8G	kiss	1AM	newline	voice	.	125.157	A:maj
8E	me	.	.	.	.	.	.
8E	once	.	.	.	.	.	.
8C#	or	.	.	.	.	.	.
4E	twice	.	.	.	A	.	.
8r	.	.	.	.	.	.	.
8E	Then	.	.	.	.	.	.
=74	=74	=74	=74	=74	=74	=74	=74
8G	say	1AM	.	voice	.	126.864	A:maj
8E	it's	.	.	.	.	.	.
8E	ve-	.	.	.	.	.	.
8C#	-ry	.	.	.	.	.	.
8E	nice	.	.	.	A	.	.
8E	and	.	.	.	.	.	.
8F#	then	.	.	.	.	.	.
8E	you	.	.	.	.	.	.
=75	=75	=75	=75	=75	=75	=75	=75
8B	run	1EM	.	voice	B	128.571	E:maj
[8G#	_	.	.	.	.	.	.
4G#]	_	.	.	.	.	.	.
2r	.	.	.	.	.	.	.
=76	=76	=76	=76	=76	=76	=76	=76
1r	.	1EM	.	voice	.	130.278	E:maj
=77	=77	=77	=77	=77	=77	=77	=77
4r	.	1BM	newline	voice	.	131.985	B:maj
16F#	Lit-	.	.	.	.	.	.
16F#	-tle	.	.	.	.	.	.
[8F#	sis-	.	.	.	.	.	.
8F#]	_	.	.	.	.	.	.
8F#	-ter	.	.	.	.	.	.
8F#	don't	.	.	.	.	.	.
8F#	you	.	.	.	.	.	.
=78	=78	=78	=78	=78	=78	=78	=78
4G	do	2CM	.	voice	.	133.688	C:maj
8G	what	.	.	.	.	.	.
8G	your	.	.	.	.	.	.
4F#	big	2BM	.	voice	.	134.539	B:maj
8F#	sis-	.	.	.	.	.	.
8E	-ter	.	.	.	.	.	.
=79	=79	=79	=79	=79	=79	=79	=79
4E	done-	1EM	.	voice	B	135.39	E:maj
4r	.	.	.	.	.	.	.
2r	.	.	.	.	.	.	.
=80	=80	=80	=80	=80	=80	=80	=80
1r	.	1EM	.	voice	.	137.092	E:maj
=81	=81	=81	=81	=81	=81	=81	=81
*>Letter>D	*>Letter>D	*>Letter>D	*>Letter>D	*>Letter>D	*>Letter>D	*>Letter>D	*>Letter>D
*>Label>Outro	*>Label>Outro	*>Label>Outro	*>Label>Outro	*>Label>Outro	*>Label>Outro	*>Label>Outro	*>Label>Outro
4r	.	1BM	newline	voice	.	138.794	B:maj
16F#	-Lit-	.	.	.	.	.	.
16F#	-tle	.	.	.	.	.	.
[8F#	sis-	.	.	.	.	.	.
8F#]	_	.	.	.	.	.	.
8F#	-ter	.	.	.	.	.	.
8F#	don't	.	.	.	.	.	.
8F#	you	.	.	.	.	.	.
=82	=82	=82	=82	=82	=82	=82	=82
4G	do	2CM	.	voice	.	140.513	C:maj
8G	what	.	.	.	.	.	.
8G	your	.	.	.	.	.	.
4F#	big	2BM	.	voice	.	141.372	B:maj
8F#	sis-	.	.	.	.	.	.
8E	-ter	.	.	.	.	.	.
=83	=83	=83	=83	=83	=83	=83	=83
4E	done-	1EM	.	voice	B	142.231	E:maj
4r	.	.	.	.	.	.	.
2r	.	.	.	.	.	.	.
=84	=84	=84	=84	=84	=84	=84	=84
1r	.	1EM	.	voice	.	143.95	E:maj
=85	=85	=85	=85	=85	=85	=85	=85
*>Label>>Fadeout	*>Label>>Fadeout	*>Label>>Fadeout	*>Label>>Fadeout	*>Label>>Fadeout	*>Label>>Fadeout	*>Label>>Fadeout	*>Label>>Fadeout
4r	.	1BM	newline	voice	.	145.668	B:maj
16F#	-Lit-	.	.	.	.	.	.
16F#	-tle	.	.	.	.	.	.
[8F#	sis-	.	.	.	.	.	.
8F#]	_	.	.	.	.	.	.
8F#	-ter	.	.	.	.	.	.
8F#	don't	.	.	.	.	.	.
8F#	you	.	.	.	.	.	.
=86	=86	=86	=86	=86	=86	=86	=86
4G	do	2CM	.	voice	.	146.659	C:maj
8G	what	.	.	.	.	.	.
8G	your	.	.	.	.	.	.
4F#	big	2BM	.	voice	.	147.154	B:maj
8F#	sis-	.	.	.	.	.	.
8E	-ter	.	.	.	.	.	.
=87	=87	=87	=87	=87	=87	=87	=87
4E	done-	1EM	.	voice	B	147.649	E:maj
4r	.	.	.	.	.	.	.
2r	.	.	.	.	.	.	.
=88	=88	=88	=88	=88	=88	=88	=88
1r	.	1EM	.	voice	.	148.639	E:maj
r;	.	1r;	.	r	.	149.63	N.C.
r;	.	1r;	.	r	.	152.028	N.C.
*-	*-	*-	*-	*-	*-	*-	*-
!!!BillboardChartDate: 1961/10/30
!!!BillboardPeak: 5
!!!BillboardWeeksOnChart: 13
!!!COC: Elvis Presley
!!!ENC: Nathaniel Condit-Schultz
!!!EST: Awating manual error checking and editing.
!!!OTL: Little Sister
!!!RDF**chordsym: original McGill chord annotation + (implied pitch class set, with bass pitch in first position)
!!!RDF**harmony: **recip + pitch class of root + harmonic quality
!!!RDF**leadinstrument: original McGill primary instrumentation annotation
!!!RDF**phrase: newline = linebreak in original McGill transcription
!!!RDF**timestamp: McGill audio timestamp in seconds
!!!RDT: 2017/01/12/
!!!SampleActualRank: 34
!!!SampleID#: 0159
!!!SampleTargetRank: 35
